X:628
T:Lough Mountain
R:reel
C:Eddie O'Donnell
D:Fisherstreet
Z:id:hn-reel-628
M:C|
K:Edor
~B3E FEFA | B2ec dBAF | ~A3G FDFA | dfed BAFA |
~B3E FEFA | (3Bcd ce dBAF | ABde fedf | edBA BE~E2 :|
|: ~e3d BABd | (3efg fd edBc | ~d3B ADFA | dfed BAFA |
~e3d BABd | egfd edBc | ~d3c defe | dBAd BE~E2 :|
P:variations
|: B3E FEFA | Be~e2 dBAF | ABAG FDFA | dfed BAFA |
~B3E FEFA | (3Bcd ce dBAF | ABde fedf | edBA BE~E2 :|
|: efed BABd | (3efg fd edBc | ~d3B AF~F2 | dfed BAFA |
~e3d BABd | egfd edBc | dA~A2 defe | dBAF BE~E2 :|

